X:1828
T:Polska efter Per Myhr
R:Polska
S:Efter Per Myhr
O:Funäsdalen, Härjedalen
B:E Ö nr. 698
Z:ABC-transkr. L Sohlman
M:3/4
L:1/8
Q:1/4=150
K:A
{d}c>d Bd ce|fg ae cA|B>c dB cA|BG (3AcA E>d|!
c>d Bd ce|fg af ge|bg af ge|(3fe^d e4::!
{b}bg af ec|de fd cA|Bc dB cA|BG (3AcA E>G|!
(3AGA (3BAB (3cBc|(3dcd (3efg a>c|(3def ec Ac|(3BAG A4:|]
(:musicend:)
Jfr :[[Musik/1650|+]] och [[Musik/1651|+]] 

Förslag till stråkföring:
(:music:)
